docs/source/assets/img/docs/logo.svg

<svg xmlns="http://www.w3.org/2000/svg" width="8.055" height="10.65" viewBox="4.062 2.645 8.055 10.65"><g fill="#176DC7"><path opacity=".45" d="M6.004 7.002l3.523.386.891 2.193v2.731l-.678.323-2.482-.826-1.254-4.807z"/><path opacity=".2" d="M10.618 4.275l-.39-.441-1.392-1.063a.622.622 0 0 0-.583-.09l-2.048.733-.201 3.588 3.523.386.988-1.069.103-2.044z"/><path opacity=".55" d="M5.813 3.985L4.502 5.9l1.501 1.102.201-3.588-.391.571z"/><path opacity=".5" d="M10.618 4.275l-.103 2.044 1.6.583.001-.207a.614.614 0 0 0-.104-.346l-1.394-2.074z"/><path opacity=".29" d="M10.516 6.319l.801 2.428.791.052.008-1.897-1.6-.583z"/><path opacity=".01" d="M10.516 6.319l-.989 1.069.891 2.193.898-.834-.8-2.428z"/><path opacity=".2" d="M11.316 8.747l-.898.834v2.731l.355-.17 1.328-.631-.785-2.764z"/><path opacity=".6" d="M4.502 5.9l-.202.296 1.768 2.835.497.118-.561-2.147L4.502 5.9z"/><path opacity=".9" d="M4.3 6.196l-.239 4.359 1.752-1.297.254-.228L4.3 6.196z"/><path opacity=".97" d="M6.564 9.149l-.496-.118-2.006 1.524 1.92 1.859 1.277-.606-.695-2.659z"/><path opacity=".6" d="M7.258 11.809l-1.277.606.328.219 1.531.669a.614.614 0 0 0 .512-.008l1.388-.66-2.482-.826z"/><path opacity=".5" d="M11.316 8.747l.791.052-.006 2.713-.785-2.765z"/></g></svg>

<?xml version="1.0" encoding="utf-8"?>
<!-- Generator: Adobe Illustrator 16.0.4, SVG Export Plug-In . SVG Version: 6.00 Build 0)  -->
<!DOCTYPE svg PUBLIC "-//W3C//DTD SVG 1.1//EN" "http://www.w3.org/Graphics/SVG/1.1/DTD/svg11.dtd">
<svg version="1.1" id="Layer_1" xmlns="http://www.w3.org/2000/svg" xmlns:xlink="http://www.w3.org/1999/xlink" x="0px" y="0px"
	 width="8.055px" height="10.65px" viewBox="4.062 2.645 8.055 10.65" enable-background="new 4.062 2.645 8.055 10.65"
	 xml:space="preserve">
<g>
	<path opacity="0.45" fill="#176DC7" enable-background="new    " d="M6.004,7.002l3.523,0.386l0.891,2.193v2.731L9.74,12.635
		l-2.482-0.826L6.004,7.002z"/>
	<path opacity="0.2" fill="#176DC7" enable-background="new    " d="M10.618,4.275l-0.39-0.441L8.836,2.771
		C8.669,2.645,8.45,2.611,8.253,2.681L6.205,3.414L6.004,7.002l3.523,0.386l0.988-1.069L10.618,4.275z"/>
	<path opacity="0.55" fill="#176DC7" enable-background="new    " d="M5.813,3.985L4.502,5.9l1.501,1.102l0.201-3.588L5.813,3.985z"
		/>
	<path opacity="0.5" fill="#176DC7" enable-background="new    " d="M10.618,4.275l-0.103,2.044l1.6,0.583l0.001-0.207
		c0.001-0.124-0.036-0.244-0.104-0.346L10.618,4.275z"/>
	<path opacity="0.29" fill="#176DC7" enable-background="new    " d="M10.516,6.319l0.801,2.428l0.791,0.052l0.008-1.897
		L10.516,6.319z"/>
	<path opacity="0.01" fill="#176DC7" enable-background="new    " d="M10.516,6.319L9.527,7.388l0.891,2.193l0.898-0.834
		L10.516,6.319z"/>
	<path opacity="0.2" fill="#176DC7" enable-background="new    " d="M11.316,8.747l-0.898,0.834v2.731l0.355-0.17l1.328-0.631
		L11.316,8.747z"/>
	<path opacity="0.6" fill="#176DC7" enable-background="new    " d="M4.502,5.9L4.3,6.196l1.768,2.835l0.497,0.118L6.004,7.002
		L4.502,5.9z"/>
	<path opacity="0.9" fill="#176DC7" enable-background="new    " d="M4.3,6.196l-0.239,4.359l1.752-1.297l0.254-0.228L4.3,6.196z"/>
	<path opacity="0.97" fill="#176DC7" enable-background="new    " d="M6.564,9.149L6.068,9.031l-2.006,1.524l1.92,1.859l1.277-0.606
		L6.564,9.149z"/>
	<path opacity="0.6" fill="#176DC7" enable-background="new    " d="M7.258,11.809l-1.277,0.606l0.328,0.219l1.531,0.669
		c0.164,0.072,0.351,0.069,0.512-0.008l1.388-0.66L7.258,11.809z"/>
	<path opacity="0.5" fill="#176DC7" enable-background="new    " d="M11.316,8.747l0.791,0.052l-0.006,2.713L11.316,8.747z"/>
</g>
</svg>
